X: 4287
M: C
L: 1/8
K: D
[1,3 DEFG ABcd | e^def e2 :|\
[2,4 DFAd fedc | d2f2"_D.C."d2 |:\
(cB) |\
dcdB A3(GF) |\
dcdf edcB | A2A2 A2(FE) |\


